X: 1
P: Pat's Wedding Day
C: Donald Angus Beaton
C: arr. Terry Traub, 7-30-2000
M: 6/8
L: 1/8
R: Jig
K: G
|: a|"G"gfg "C"efg|"G"dBG GBd|"G"gfg "Em"efg|"D"afd d2 a|"G"gfg "C"efg|"G"dBG GBd|"Am"ecA "D"EAc|"G"BGG G2 :|
|: A|"G"BAB GBd|"C"gfg efg|"G"dBG "A7"GFG |"D"AFD D2 A|"G"BAB GBd|"C"gfg "C#dim"efg|"D"fef dfa|"G"g3 g2 :|
